X:634
T:Fr\"olicher Landmann
T:(The Happy Farmer) Op. 68 no. 10
T:Trio arrangement
C:Robert Schumann, arr. Frank Nordberg
O:Germany
B:Schumann: "Album for the young" no. 10
N:Three part arrangement
Z:Transcribed by Frank Nordberg - http://www.musicaviva.com
F:http://abc.musicaviva.com/tunes/schumann-robert/schm068-10/schm068-10-3m.abc
V:3 bass
M:4/4
L:1/8
K:F
V:1
z|z A A z z c c z|z d d z z c c z|z c c2 z A A2|z G z =B z c c :: (C|B3 A G3) (C|
V:2
z|z F F z z A A z|z B B z z A A  z|z E E2 z F F2|z C z F z E E::z| z E E z z C C z|
V:3
(C,|F,3A, C3) (F,|B,DFD C3) (A,|B,G,C,B, A,F,C,A,|E,2D,2C,2) z::(C,|G,3F, E,3) (C,|
%
V:1
BAGF G3) (C|F3) (A c3) (F|Bdfd c3) z|z c c2 z AAA|z G z C z F F:|
V:2
z (CC^B,) z C C z|z C C z z A A z|z B z B z A A z|z E E2 z FFF|z B, z B, z A, A,:|
V:3
G,F,E,D, E,3) (C,|F,3) (A, C3) (F,|B,DFD C3) (A,|B,G,C,B,) (A,F,C,A,)|(G,2E,2F,2) z:|
W:
W:
W:  From Musica Viva - http://www.musicaviva.com
W:  the Internet center for free sheet music downloads.
